Yaru++/apps/scalable/cool-retro-term.svg

<svg enable-background="new" height="256" viewBox="0 0 256 256" width="256" xmlns="http://www.w3.org/2000/svg" xmlns:xlink="http://www.w3.org/1999/xlink"><linearGradient id="a" gradientTransform="matrix(0 -1 1 0 -10.0054 585.9946)" gradientUnits="userSpaceOnUse" x1="88" x2="488" y1="88" y2="488"><stop offset="0" stop-opacity=".588235"/><stop offset=".88" stop-opacity="0"/><stop offset="1"/></linearGradient><filter id="b" color-interpolation-filters="sRGB" height="1.088" width="1.106" x="-.05" y="-.04"><feGaussianBlur stdDeviation="8.48"/></filter><filter id="c" color-interpolation-filters="sRGB" height="1.022" width="1.026" x="-.01" y="-.01"><feGaussianBlur stdDeviation="2.12"/></filter><path d="m189.84323 74c-70.59344 0-78.18921 7.250835-77.84323 77.98706v146.01294 146.01294c-.34598 70.73623 7.24979 77.98706 77.84323 77.98706h196.31354c70.59344 0 76.00668-7.27384 77.84323-77.98706v-146.01294-146.01294c0-70.737067-7.24979-77.98706-77.84323-77.98706z" filter="url(#c)" opacity=".1" transform="matrix(0 .5 -.5 0 276.82523 -15.328148)"/><path d="m189.84323 74c-70.59344 0-78.18921 7.250835-77.84323 77.98706v146.01294 146.01294c-.34598 70.73623 7.24979 77.98706 77.84323 77.98706h196.31354c70.59344 0 77.84323-7.24999 77.84323-77.98706v-146.01294-146.01294c0-70.737067-7.24979-77.98706-77.84323-77.98706z" fill="url(#a)" filter="url(#b)" opacity=".3" transform="matrix(0 .5 -.5 0 276.82523 -15.328148)"/><path d="m241.83043 77.478254c0-36.098811-3.69016-39.983003-39.68984-39.806081h-74.31016-74.310154c-35.99969-.176922-39.68984 3.70727-39.68984 39.806081v100.387326c0 36.09881 3.68973 39.80608 39.68984 39.80608h74.310154 74.31016c36.00011 0 39.68984-3.70727 39.68984-39.80608z" opacity=".1"/><path d="m239.82523 176.74484c0 35.29673-3.62542 39.09461-38.99353 38.92162h-73.00647-73.006464c-35.36812.17299-38.99353-3.62489-38.99353-38.92162v-98.156766c0-35.296716 3.625-38.921616 38.99353-38.921616h73.006464 73.00647c35.36853 0 38.99353 3.6249 38.99353 38.921616z" fill="#060505"/><path d="m15.825983 119.66916v57.07617c0 35.29673 3.624067 39.09487 38.992187 38.92188h73.00781 73.00586c35.36811.17299 38.99414-3.62515 38.99414-38.92188v-57.07617z" fill="#fff" opacity=".05"/><g fill="#f80" transform="matrix(1.2007164 0 0 1.0388484 -6.449216 -1.885823)"><path d="m42.492677 112.5406v-10.66406h21.328125v10.66406zm21.328125-10.66406v-10.664061h10.664062v10.664061zm-31.992187 0v-42.669268h10.664062v42.669268zm31.992187-31.992185v-10.677083h10.664062v10.677083zm-21.328125-10.677083v-10.664063h21.328125v10.664063z"/><path d="m117.15413 112.5406v-31.992183h10.66407v31.992183zm0-42.656245v-10.677083h10.66407v10.677083zm-31.992183 42.656245v-63.997391h31.992183v10.664063h-21.328121v10.677083h21.328121v10.664062h-21.328121v31.992183z"/><path d="m159.8234 112.5406v-53.333328h-21.32812v-10.664063h53.33333v10.664063h-21.34114v53.333328z"/></g><path d="m32.289898 136.41887h63.195942v62.504017h-63.195942z" fill="#f80"/><path d="m54.81817 39.667201c-35.36853 0-38.992187 3.623202-38.992187 38.919923v98.158206c0 .0882.0019.16224.002.25v-96.410156c-.000047-35.29672 3.625564-38.921879 38.994094-38.921879h73.005853 73.00586c35.28016 0 38.97394 3.621035 38.99219 38.671879v-1.74805c0-35.296721-3.62561-38.919923-38.99414-38.919923h-73.00586z" fill="#fff" opacity=".3"/><path d="m15.825983 174.74533v2c0 35.29673 3.624067 39.09487 38.992187 38.92188h73.00781 73.00586c35.36811.17299 38.99414-3.62515 38.99414-38.92188v-2c0 35.29673-3.62603 39.09487-38.99414 38.92188h-73.00586-73.00781c-35.36812.17299-38.992187-3.62515-38.992187-38.92188z" opacity=".2"/></svg>

<?xml version="1.0" encoding="UTF-8" standalone="no"?>
<svg
   xmlns:dc="http://purl.org/dc/elements/1.1/"
   xmlns:cc="http://creativecommons.org/ns#"
   xmlns:rdf="http://www.w3.org/1999/02/22-rdf-syntax-ns#"
   xmlns:svg="http://www.w3.org/2000/svg"
   xmlns="http://www.w3.org/2000/svg"
   xmlns:sodipodi="http://sodipodi.sourceforge.net/DTD/sodipodi-0.dtd"
   xmlns:inkscape="http://www.inkscape.org/namespaces/inkscape"
   enable-background="new"
   height="256"
   viewBox="0 0 256 256"
   width="256"
   version="1.1"
   id="svg43"
   sodipodi:docname="terminal-app.svg"
   inkscape:version="0.92.5 (2060ec1f9f, 2020-04-08)">
  <metadata
     id="metadata49">
    <rdf:RDF>
      <cc:Work
         rdf:about="">
        <dc:format>image/svg+xml</dc:format>
        <dc:type
           rdf:resource="http://purl.org/dc/dcmitype/StillImage" />
        <dc:title />
      </cc:Work>
    </rdf:RDF>
  </metadata>
  <defs
     id="defs47" />
  <sodipodi:namedview
     pagecolor="#ffffff"
     bordercolor="#666666"
     borderopacity="1"
     objecttolerance="10"
     gridtolerance="10"
     guidetolerance="10"
     inkscape:pageopacity="0"
     inkscape:pageshadow="2"
     inkscape:window-width="1920"
     inkscape:window-height="1016"
     id="namedview45"
     showgrid="false"
     inkscape:zoom="2.4133297"
     inkscape:cx="136.50323"
     inkscape:cy="124.39877"
     inkscape:window-x="0"
     inkscape:window-y="27"
     inkscape:window-maximized="1"
     inkscape:current-layer="svg43" />
  <linearGradient
     id="a"
     gradientUnits="userSpaceOnUse"
     x1="252.122"
     x2="21.425"
     y1="210.694"
     y2="210.694">
    <stop
       offset="0"
       id="stop2" />
    <stop
       offset="1"
       stop-opacity="0"
       id="stop4" />
  </linearGradient>
  <filter
     id="b"
     color-interpolation-filters="sRGB"
     height="1.143"
     width="1.103"
     x="-.05"
     y="-.07">
    <feGaussianBlur
       stdDeviation="3.138"
       id="feGaussianBlur7" />
  </filter>
  <linearGradient
     id="c"
     gradientTransform="matrix(0 -1 1 0 -10.0054 585.9946)"
     gradientUnits="userSpaceOnUse"
     x1="88"
     x2="488"
     y1="88"
     y2="488">
    <stop
       offset="0"
       stop-opacity=".588235"
       id="stop10" />
    <stop
       offset=".88"
       stop-opacity="0"
       id="stop12" />
    <stop
       offset="1"
       id="stop14" />
  </linearGradient>
  <filter
     id="d"
     color-interpolation-filters="sRGB"
     height="1.088"
     width="1.106"
     x="-.05"
     y="-.04">
    <feGaussianBlur
       stdDeviation="8.48"
       id="feGaussianBlur17" />
  </filter>
  <filter
     id="e"
     color-interpolation-filters="sRGB"
     height="1.022"
     width="1.026"
     x="-.01"
     y="-.01">
    <feGaussianBlur
       stdDeviation="2.12"
       id="feGaussianBlur20" />
  </filter>
  <path
     d="m189.84323 74c-70.59344 0-78.18921 7.250835-77.84323 77.98706v146.01294 146.01294c-.34598 70.73623 7.24979 77.98706 77.84323 77.98706h196.31354c70.59344 0 76.00668-7.27384 77.84323-77.98706v-146.01294-146.01294c0-70.737067-7.24979-77.98706-77.84323-77.98706z"
     filter="url(#e)"
     opacity=".1"
     transform="matrix(0 .5 -.5 0 276.82523 -15.328148)"
     id="path23" />
  <path
     d="m189.84323 74c-70.59344 0-78.18921 7.250835-77.84323 77.98706v146.01294 146.01294c-.34598 70.73623 7.24979 77.98706 77.84323 77.98706h196.31354c70.59344 0 77.84323-7.24999 77.84323-77.98706v-146.01294-146.01294c0-70.737067-7.24979-77.98706-77.84323-77.98706z"
     fill="url(#c)"
     filter="url(#d)"
     opacity=".3"
     transform="matrix(0 .5 -.5 0 276.82523 -15.328148)"
     id="path25" />
  <path
     d="m241.83043 77.478254c0-36.098811-3.69016-39.983003-39.68984-39.806081h-74.31016-74.310154c-35.99969-.176922-39.68984 3.70727-39.68984 39.806081v100.387326c0 36.09881 3.68973 39.80608 39.68984 39.80608h74.310154 74.31016c36.00011 0 39.68984-3.70727 39.68984-39.80608z"
     opacity=".1"
     id="path27" />
  <path
     d="m239.82523 176.74484c0 35.29673-3.62542 39.09461-38.99353 38.92162h-73.00647-73.006464c-35.36812.17299-38.99353-3.62489-38.99353-38.92162v-98.156766c0-35.296716 3.625-38.921616 38.99353-38.921616h73.006464 73.00647c35.36853 0 38.99353 3.6249 38.99353 38.921616z"
     fill="#4d4d4d"
     id="path29"
     style="fill:#060505;fill-opacity:1" />
  <path
     d="m15.825983 119.66916v57.07617c0 35.29673 3.624067 39.09487 38.992187 38.92188h73.00781 73.00586c35.36811.17299 38.99414-3.62515 38.99414-38.92188v-57.07617z"
     id="path35"
     fill="#fff"
     opacity=".05" />
  <g
     aria-label="CRT"
     style="font-style:normal;font-weight:normal;font-size:40px;line-height:1.25;font-family:sans-serif;letter-spacing:0px;word-spacing:0px;fill:#000000;fill-opacity:1;stroke:none"
     id="text858"
     transform="matrix(1.2007164,0,0,1.0388484,-6.449216,-1.8858225)">
    <path
       d="M 42.492677,112.5406 V 101.87654 H 63.820802 V 112.5406 Z M 63.820802,101.87654 V 91.212479 h 10.664062 v 10.664061 z m -31.992187,0 V 59.207272 H 42.492677 V 101.87654 Z M 63.820802,69.884355 V 59.207272 H 74.484864 V 69.884355 Z M 42.492677,59.207272 V 48.543209 h 21.328125 v 10.664063 z"
       style="font-style:normal;font-variant:normal;font-weight:normal;font-stretch:normal;font-size:53.33333206px;font-family:Pixeled;-inkscape-font-specification:Pixeled;fill:#ff8800;fill-opacity:1"
       id="path1260"
       inkscape:connector-curvature="0" />
    <path
       d="M 117.15413,112.5406 V 80.548417 H 127.8182 V 112.5406 Z m 0,-42.656245 V 59.207272 H 127.8182 V 69.884355 Z M 85.161947,112.5406 V 48.543209 H 117.15413 V 59.207272 H 95.826009 V 69.884355 H 117.15413 V 80.548417 H 95.826009 V 112.5406 Z"
       style="font-style:normal;font-variant:normal;font-weight:normal;font-stretch:normal;font-size:53.33333206px;font-family:Pixeled;-inkscape-font-specification:Pixeled;fill:#ff8800;fill-opacity:1"
       id="path1262"
       inkscape:connector-curvature="0" />
    <path
       d="M 159.8234,112.5406 V 59.207272 H 138.49528 V 48.543209 h 53.33333 V 59.207272 H 170.48747 V 112.5406 Z"
       style="font-style:normal;font-variant:normal;font-weight:normal;font-stretch:normal;font-size:53.33333206px;font-family:Pixeled;-inkscape-font-specification:Pixeled;fill:#ff8800;fill-opacity:1"
       id="path1264"
       inkscape:connector-curvature="0" />
  </g>
  <rect
     style="opacity:1;fill:#ff8800;fill-opacity:1;stroke:none;stroke-width:12;stroke-miterlimit:4;stroke-dasharray:none;stroke-opacity:1"
     id="rect860"
     width="63.195942"
     height="62.504017"
     x="32.289898"
     y="136.41887" />
  <path
     d="m54.81817 39.667201c-35.36853 0-38.992187 3.623202-38.992187 38.919923v98.158206c0 .0882.0019.16224.002.25v-96.410156c-.000047-35.29672 3.625564-38.921879 38.994094-38.921879h73.005853 73.00586c35.28016 0 38.97394 3.621035 38.99219 38.671879v-1.74805c0-35.296721-3.62561-38.919923-38.99414-38.919923h-73.00586z"
     fill="#fff"
     opacity=".3"
     id="path31" />
  <path
     d="m15.825983 174.74533v2c0 35.29673 3.624067 39.09487 38.992187 38.92188h73.00781 73.00586c35.36811.17299 38.99414-3.62515 38.99414-38.92188v-2c0 35.29673-3.62603 39.09487-38.99414 38.92188h-73.00586-73.00781c-35.36812.17299-38.992187-3.62515-38.992187-38.92188z"
     opacity=".2"
     id="path33" />
</svg>
